X:231
%%etbk:tnset id:72,pos:2,rep:3x,ant:
%%etbk:wsite http://www.thesession.org/tunes/display/401
%%etbk:pldat 2016-07-21T19:09,2016-05-26T18:19,2016-03-22T18:17,2015-07-25T15:09,2015-04-23T18:46,2015-04-21T15:20,2015-03-24T17:16,2015-02-14T14:49,2015-02-04T17:28,2015-02-03T16:38,2015-02-02T19:11,2014-12-31T14:52,2014-12-17T18:26,2014-12-01T19:18,2014-09-24T16:40,2014-05-17T14:38,2014-04-08T17:38,2014-03-22T15:24,2014-02-27T18:55,2014-02-16T13:34,2014-02-09T11:42,2014-02-07T16:44,2013-10-24T18:13,2013-10-21T17:58,2013-10-20T13:53,2013-10-07T18:38,2013-09-12T18:27,2013-09-11T18:59,2013-08-29T16:25,2013-08-28T17:18,2013-08-26T17:53
T: Gander In The Pratie Hole, The
Z: Piano Box Version by Martin Fleischmann
H: Created 2013-02-19 /  Last Modified 2013-02-19
M: 6/8
L: 1/8
R: jig
K: Dmix
|:  "D"!2!F!4!A!1!D FAF | "A"!3!GFG !1!EFG | "D"!2!FAD FAD | "A"!4!GE!1!D "D"!1!D !3!(3D!2!D!1!D |
!2!FAD FAD | "A"!3!GFG !1!E2!4!e | !5!fed !4!e!2!^c!1!A | !4!GE!1!D "D"D3 :|
|:  "D"!2!A!4!dd ded | "A"!3!cAB !3!c!1!A!2!G | "D"!1!A!4!dd ded | "A"!3!cAB !3!c!2!c!3!c |
"D"!1!A!4!dd ded | "A"!3!c!1!AB !3!cd!5!e | !5!fed !4!e!2!^c!1!A | !4!GE!1!D "D"D3 :|


